src/static/logos/paypal.svg

<?xml version="1.0" encoding="UTF-8" standalone="no"?>
<svg width="256px" height="302px" viewBox="0 0 256 302" version="1.1" xmlns="http://www.w3.org/2000/svg" xmlns:xlink="http://www.w3.org/1999/xlink" preserveAspectRatio="xMidYMid">
	<g>
		<path d="M217.168476,23.5070146 C203.234077,7.62479651 178.045612,0.815753338 145.823355,0.815753338 L52.3030619,0.815753338 C45.7104431,0.815753338 40.1083819,5.6103852 39.0762042,12.1114399 L0.136468302,259.076601 C-0.637664968,263.946149 3.13311322,268.357876 8.06925331,268.357876 L65.804612,268.357876 L80.3050438,176.385849 L79.8555471,179.265958 C80.8877248,172.764903 86.4481659,167.970272 93.0324607,167.970272 L120.46841,167.970272 C174.366398,167.970272 216.569147,146.078116 228.897012,82.7490197 C229.263268,80.8761167 229.579581,79.0531577 229.854273,77.2718188 C228.297683,76.4477414 228.297683,76.4477414 229.854273,77.2718188 C233.525163,53.8646924 229.829301,37.9325302 217.168476,23.5070146" fill="#27346A"></path>
		<path d="M102.396976,68.8395929 C103.936919,68.1070797 105.651665,67.699203 107.449652,67.699203 L180.767565,67.699203 C189.449511,67.699203 197.548776,68.265236 204.948824,69.4555699 C207.071448,69.7968545 209.127479,70.1880831 211.125242,70.6375799 C213.123006,71.0787526 215.062501,71.5781934 216.943728,72.1275783 C217.884341,72.4022708 218.808307,72.6852872 219.715624,72.9849517 C223.353218,74.2002577 226.741092,75.61534 229.854273,77.2718188 C233.525163,53.8563683 229.829301,37.9325302 217.168476,23.5070146 C203.225753,7.62479651 178.045612,0.815753338 145.823355,0.815753338 L52.2947379,0.815753338 C45.7104431,0.815753338 40.1083819,5.6103852 39.0762042,12.1114399 L0.136468302,259.068277 C-0.637664968,263.946149 3.13311322,268.349552 8.0609293,268.349552 L65.804612,268.349552 L95.8875974,77.5798073 C96.5035744,73.6675208 99.0174265,70.4627756 102.396976,68.8395929 Z" fill="#27346A"></path>
		<path d="M228.897012,82.7490197 C216.569147,146.069792 174.366398,167.970272 120.46841,167.970272 L93.0241367,167.970272 C86.4398419,167.970272 80.8794007,172.764903 79.8555471,179.265958 L61.8174095,293.621258 C61.1431644,297.883153 64.4394738,301.745495 68.7513129,301.745495 L117.421821,301.745495 C123.182038,301.745495 128.084882,297.550192 128.983876,291.864891 L129.458344,289.384335 L138.631407,231.249423 L139.222412,228.036354 C140.121406,222.351053 145.02425,218.15575 150.784467,218.15575 L158.067979,218.15575 C205.215193,218.15575 242.132193,199.002194 252.920115,143.605884 C257.423406,120.456802 255.092683,101.128442 243.181019,87.5519756 C239.568397,83.4399129 235.081754,80.0437153 229.854273,77.2718188 C229.571257,79.0614817 229.263268,80.8761167 228.897012,82.7490197 L228.897012,82.7490197 Z" fill="#2790C3"></path>
		<path d="M216.952052,72.1275783 C215.070825,71.5781934 213.13133,71.0787526 211.133566,70.6375799 C209.135803,70.1964071 207.071448,69.8051785 204.957148,69.4638939 C197.548776,68.265236 189.457835,67.699203 180.767565,67.699203 L107.457976,67.699203 C105.651665,67.699203 103.936919,68.1070797 102.4053,68.8479169 C99.0174265,70.4710996 96.5118984,73.6675208 95.8959214,77.5881313 L80.3133678,176.385849 L79.8638711,179.265958 C80.8877248,172.764903 86.4481659,167.970272 93.0324607,167.970272 L120.476734,167.970272 C174.374722,167.970272 216.577471,146.078116 228.905336,82.7490197 C229.271592,80.8761167 229.579581,79.0614817 229.862597,77.2718188 C226.741092,75.623664 223.361542,74.2002577 219.723948,72.9932757 C218.816631,72.6936112 217.892665,72.4022708 216.952052,72.1275783" fill="#1F264F"></path>
	</g>
</svg>

<svg width="256" height="302" xmlns="http://www.w3.org/2000/svg" preserveAspectRatio="xMidYMid"><path d="M217.168 23.507C203.234 7.625 178.046.816 145.823.816h-93.52A13.393 13.393 0 0039.076 12.11L.136 259.077c-.774 4.87 2.997 9.28 7.933 9.28h57.736l14.5-91.971-.45 2.88c1.033-6.501 6.593-11.296 13.177-11.296h27.436c53.898 0 96.101-21.892 108.429-85.221.366-1.873.683-3.696.957-5.477-1.556-.824-1.556-.824 0 0 3.671-23.407-.025-39.34-12.686-53.765" fill="#27346A"/><path d="M102.397 68.84a11.737 11.737 0 015.053-1.14h73.318c8.682 0 16.78.565 24.18 1.756a101.6 101.6 0 016.177 1.182 89.928 89.928 0 018.59 2.347c3.638 1.215 7.026 2.63 10.14 4.287 3.67-23.416-.026-39.34-12.687-53.765C203.226 7.625 178.046.816 145.823.816H52.295C45.71.816 40.108 5.61 39.076 12.11L.136 259.068c-.774 4.878 2.997 9.282 7.925 9.282h57.744L95.888 77.58a11.717 11.717 0 016.509-8.74z" fill="#27346A"/><path d="M228.897 82.749c-12.328 63.32-54.53 85.221-108.429 85.221H93.024c-6.584 0-12.145 4.795-13.168 11.296L61.817 293.621c-.674 4.262 2.622 8.124 6.934 8.124h48.67a11.71 11.71 0 0011.563-9.88l.474-2.48 9.173-58.136.591-3.213a11.71 11.71 0 0111.562-9.88h7.284c47.147 0 84.064-19.154 94.852-74.55 4.503-23.15 2.173-42.478-9.739-56.054-3.613-4.112-8.1-7.508-13.327-10.28-.283 1.79-.59 3.604-.957 5.477z" fill="#2790C3"/><path d="M216.952 72.128a89.928 89.928 0 00-5.818-1.49 109.904 109.904 0 00-6.177-1.174c-7.408-1.199-15.5-1.765-24.19-1.765h-73.309a11.57 11.57 0 00-5.053 1.149 11.683 11.683 0 00-6.51 8.74l-15.582 98.798-.45 2.88c1.025-6.501 6.585-11.296 13.17-11.296h27.444c53.898 0 96.1-21.892 108.428-85.221.367-1.873.675-3.688.958-5.477-3.122-1.648-6.501-3.072-10.14-4.279a83.26 83.26 0 00-2.77-.865" fill="#1F264F"/></svg>
